**kern	**kern	**dynam
*part1	*part1	*part1
*staff2	*staff1	*
*I"Piano	*	*
*clefF4	*clefF4	*
*k[]	*k[]	*
=1	=1	=1
*^	*	*
(8BB-XL	4BB-	8c'L 8g	.
8CCJ)	.	8F#X'J 8d	.
(8AAL	4AA	[4F# [4d [4f#X	.
8CCJ)	.	.	.
=	=	=	=
(8AA-XL	4AA-	8F#L] 8d] 8f#]	.
8CCJ)	.	8Fn'J 8c 8fn	.
(8GGL	4GG	8D#X'L 8c	.
8CCJ)	.	8E'J 8B 8e	.
=	=	=	=
*	*	*^	*
(8FF#XL	4FF#	4rAyy	8E-X'L 8A	.
8CCJ)	.	.	8D'J 8A-X 8d	.
8FFnL	(4FF	16cLL	8DL	.
.	.	16B	.	.
8GGGJ)	.	16An	8FJ 8G	.
.	.	16BJJ	.	.
*v	*v	*	*	*
*	*v	*v	*
=	=	=
4CC 4GG 4C	4En 4G 4c	ff
*	*clefG2	*
8.EEL 8.E	8.eL	.
16GGJk 16G	16gJk	.
=	=	=
8GG 8G	8g	.
4FF#X 4F#X	4f#X	.
16DDLL 16D	16dLL	.
16EEJJ 16E	16eJJ	.
=	=	=
16FFn 16Fn	16fn	.
16r	16c#XLL 16cc#X	.
8r	16d 16dd	.
.	16eJJ 16ee	.
8r	16fLL 16ff	.
.	16g 16gg	.
8GG 8D 8F 8G	16a 16aa	.
.	16bJJ 16bb	.
=	=	=
8C 8E 8G	8cc 8ee 8ccc	sf
8r	8r	.
4r	4r	.
==	==	==
*-	*-	*-
!!!system-decoration: {(s1,s2)}
